outputs/icons/file/jpg_attach_round.svg

<svg xmlns="http://www.w3.org/2000/svg" width="1200" height="1200" fill="none"><g fill="#000" clip-path="url(#a)"><path d="M828.76 50H157.079C98.186 50 50 99.5 50 160v880c0 60.5 47.65 110 106.544 110h886.376c58.895 0 107.08-49.5 107.08-110V380zm214.16 990H157.079V160H775.22v275h267.7z"/><path d="M415.797 600.995v251.5q0 23.499-8.5 43-8 18.999-23.5 32.5-15 13.5-36.5 21-21.5 6.999-48 7-53.5-.001-83-26.5-29-27-37-70.5l71-14.5q4 22.499 15 36.5 11.5 14.001 34 14 19 0 29.5-12 11-12.501 11-38v-182.5h-115v-61.5zM488.101 949.995v-349H623.1c17 0 32.17 2.665 45.5 8q20.001 7.501 33.5 22c9.335 9.665 16.335 21.335 21 35 4.67 13.665 7 29 7 46s-2.33 32.335-7 46c-4.665 13.665-11.665 25.335-21 35q-13.499 14.498-33.5 22.5c-13.33 5-28.5 7.5-45.5 7.5h-59.5v127zm75.499-187.5h40.5q26.504-.001 36.5-10 10.5-9.997 10.5-33v-15q0-23.002-10.5-33-9.996-9.999-36.5-10h-40.5zM945.405 900.495h-4.5q-4.499 11.003-11 21-6.496 9.998-16 18-9.495 7.5-22.5 12-12.495 4.5-28.5 4.5-25.499 0-45.5-12-19.5-11.999-33-35c-9-15.335-15.83-34-20.5-56-4.33-22-6.5-46.835-6.5-74.5 0-59.335 10.835-104.665 32.5-136q32.505-47.499 100.5-47.5 27.001 0 47.5 7.5 20.504 6.999 35 20.5c10 8.665 18.17 19.165 24.5 31.5q9.503 18.501 15 41l-70 17c-2-7.335-4.33-14.335-7-21-2.33-7-5.5-13.165-9.5-18.5q-6-8.001-15-12.5c-6-3.335-13.33-5-22-5q-28.5.001-40.5 23.5-11.499 23.498-11.5 66v57c0 28.335 4.17 51 12.5 68q13.004 25.5 45.5 25.5c17 0 29.67-5 38-15q12.501-15.001 12.5-38.5v-25.5h-59.5v-53h126.5v186.5h-67z"/></g><defs><clipPath id="a"><path fill="#fff" d="M0 0h1200v1200H0z"/></clipPath></defs></svg>

<svg width="1200" height="1200" viewBox="0 0 1200 1200" fill="none" xmlns="http://www.w3.org/2000/svg"><g clip-path="url(#clip0_238_2705)"><path d="M828.76 50H157.079C98.186 50 50 99.5 50 160V1040C50 1100.5 97.65 1150 156.544 1150H1042.92C1101.815 1150 1150 1100.5 1150 1040V380L828.76 50ZM1042.92 1040H157.079V160H775.22V435H1042.92V1040Z" fill="#1D1E23"/><path d="M415.791 600.995V852.495C415.791 868.16 412.957 882.495 407.291 895.495C401.957 908.16 394.124 918.995 383.791 927.995C373.791 936.995 361.624 943.995 347.291 948.995C332.958 953.66 316.957 955.995 299.291 955.995C263.624 955.995 235.958 947.16 216.291 929.495C196.958 911.495 184.624 887.995 179.291 858.995L250.291 844.495C252.957 859.495 257.958 871.66 265.291 880.995C272.957 890.33 284.291 894.995 299.291 894.995C311.958 894.995 321.791 890.995 328.791 882.995C336.124 874.66 339.791 861.995 339.791 844.995V662.495H224.791V600.995H415.791Z" fill="#1D1E23"/><path d="M488.096 949.995V600.995H623.095C640.095 600.995 655.26 603.66 668.595 608.995C681.93 613.995 693.095 621.33 702.095 630.995C711.43 640.66 718.43 652.33 723.095 665.995C727.76 679.66 730.095 694.995 730.095 711.995C730.095 728.995 727.76 744.33 723.095 757.995C718.43 771.66 711.43 783.33 702.095 792.995C693.095 802.66 681.93 810.16 668.595 815.495C655.26 820.495 640.095 822.995 623.095 822.995H563.595V949.995H488.096ZM563.595 762.495H604.095C621.76 762.495 633.93 759.16 640.595 752.495C647.595 745.83 651.095 734.83 651.095 719.495V704.495C651.095 689.16 647.595 678.16 640.595 671.495C633.93 664.83 621.76 661.495 604.095 661.495H563.595V762.495Z" fill="#1D1E23"/><path d="M945.4 900.495H940.9C937.9 907.83 934.235 914.83 929.9 921.495C925.565 928.16 920.235 934.16 913.9 939.495C907.565 944.495 900.065 948.495 891.4 951.495C883.065 954.495 873.565 955.995 862.9 955.995C845.9 955.995 830.735 951.995 817.4 943.995C804.4 935.995 793.4 924.33 784.4 908.995C775.4 893.66 768.565 874.995 763.9 852.995C759.565 830.995 757.4 806.16 757.4 778.495C757.4 719.16 768.235 673.83 789.9 642.495C811.565 610.83 845.065 594.995 890.4 594.995C908.4 594.995 924.235 597.495 937.9 602.495C951.565 607.16 963.235 613.995 972.9 622.995C982.9 631.66 991.065 642.16 997.4 654.495C1003.735 666.83 1008.735 680.495 1012.4 695.495L942.4 712.495C940.4 705.16 938.065 698.16 935.4 691.495C933.065 684.495 929.9 678.33 925.9 672.995C921.9 667.66 916.9 663.495 910.9 660.495C904.9 657.16 897.565 655.495 888.9 655.495C869.9 655.495 856.4 663.33 848.4 678.995C840.735 694.66 836.9 716.66 836.9 744.995V801.995C836.9 830.33 841.065 852.995 849.4 869.995C858.065 886.995 873.235 895.495 894.9 895.495C911.9 895.495 924.565 890.495 932.9 880.495C941.235 870.495 945.4 857.66 945.4 841.995V816.495H885.9V763.495H1012.4V949.995H945.4V900.495Z" fill="#1D1E23"/></g><defs><clipPath id="clip0_238_2705"><path width="24" fill="white" d="M0 0H1200V1200H0V0z"/></clipPath></defs></svg>
